X:0730
T:Duke of York's Favourite.
M:2/4
L:1/16
Q:1/4=104
P:ABA % Aird uses a da capo
I: :: || DC
Z:Jack Campin * www.campin.me.uk * 2009
K:G
P:A
(GABc)  (dBce)| d2B2    G4  |(FGAB) (cABG)| A2F2   D4    |
(GABc)  (dBce)| d2g2    b4  |(abag) (defd)| g2g2   g4   :|
P:B
(gf).g.d B2B2 |(dc).d.B G2G2|(FGAB) (cABG)| A2d2   D4    |
(gf).g.d B2B2 |(dc).d.B G2G2|(cdef) (gefc)|(dcde) (ecBA)||

